X: 8484
T: Crazy Clarinettist, The
R: reel
M: 4/4
K: Dmajor
|:A3 B d2 fg|agfd gfdA|G2 Bddc A2|GAAG AdAG|
A3 B d2 fg|agfd gfdA|GBeg f d2 d|eAfd B4:|
Aded gfaf|Aded gfaf|Bfga f2 BA|GBBA d2 c2|
Aded gfaf|Aded gfaf|BddB AddA|Geef d2 c2|
Adea aggf|Adea abgf|Bfga f2 BA|GBBA d2 c2|
Adea fdAG|Adea fdAG|BddB AddA|Gdde f2 a2||

